src/qt/res/icons/icons_light/lock_open.svg

<svg enable-background="new -225 -112.5 500 250" height="249.99997" viewBox="-225 -112.5 179.23657 249.99997" width="179.23657" xmlns="http://www.w3.org/2000/svg"><path d="m97.695068-12.79419h-4.528381-1.994568-27.710937-5.127869-71.154236c.187866-19.392761 1.163636-46.906005 5.6696779-54.242858 6.9891357-11.381287 18.4953001-18.067261 31.5678711-18.344422.465271-.01025.924255-.01221 1.381042-.0079 13.255066.136169 24.870911 6.693908 31.866639 17.990356 2.342041 3.781494 3.779174 11.937927 4.637634 21.648987h29.18866c.0026-3.971863-.02783-6.936523-.107971-8.181519-1.944031-30.173767-27.962891-55.779784-59.23639-58.298164-1.960388-.15667-3.922607-.24572-5.832702-.26611-17.0508426-.17517-32.0997928 5.15253-44.727783 15.833867-12.530945 10.600402-20.76294 26.223205-22.019288 41.790527-.29248 3.620666-.262023 26.013306-.222106 42.077209h-7.039429c-9.346619 0-16.923218 7.5767827-16.923218 16.9231572v116.4478998c0 9.34638 7.576599 16.92316 16.923218 16.92316h145.390136c9.346432 0 16.923222-7.57678 16.923222-16.92316v-116.4478727c0-9.3463745-7.57679-16.9231573-16.923222-16.9231573zm-50.81604 120.71222h-42.0755002l6.4237062-52.152771c-6.1946412-4.350586-10.2229005-11.390564-10.2229005-19.340576 0-13.213318 11.1198115-23.924256 24.8363035-23.924683 13.71698 0 24.836731 10.710754 24.836731 23.924255 0 7.949829-4.027771 14.989869-10.221557 19.341004z" fill="#8763e0" transform="translate(-160.38171 -.000029)"/></svg>

<?xml version="1.0" encoding="utf-8"?>
<!-- Generator: Adobe Illustrator 19.0.0, SVG Export Plug-In . SVG Version: 6.00 Build 0)  -->
<svg version="1.1" id="Layer_1" xmlns="http://www.w3.org/2000/svg" xmlns:xlink="http://www.w3.org/1999/xlink" x="0px" y="0px" viewBox="-225 -112.5 500 250"
	 enable-background="new -225 -112.5 500 250" xml:space="preserve">
	<g>
		<g>
			<path fill="#8763E0" d="M97.6950684-12.7941895H93.166687h-1.9945679H63.4611816H58.333313h-71.1542358
				c0.1878662-19.3927612,1.1636353-46.9060059,5.6696777-54.2428589
				C-0.1621094-78.418335,11.3440552-85.1043091,24.416626-85.3814697c0.465271-0.0102539,0.9242554-0.012207,1.3810425-0.0078735
				c13.2550659,0.1361694,24.8709106,6.6939087,31.8666382,17.9903564
				c2.342041,3.7814941,3.7791748,11.9379272,4.6376343,21.6489868h29.1886597
				c0.0026245-3.9718628-0.027832-6.9365234-0.1079712-8.1815186
				c-1.9440308-30.1737671-27.9628906-55.7797852-59.2363892-58.2981567
				c-1.9603882-0.1566772-3.9226074-0.2457275-5.8327026-0.2661133
				c-17.0508423-0.1751709-32.0997925,5.1525269-44.7277832,15.8338623
				c-12.5309448,10.6004028-20.7629395,26.2232056-22.0192871,41.7905273
				c-0.2924805,3.6206665-0.2620239,26.0133057-0.2221069,42.0772095h-7.0394287
				c-9.3466187,0-16.9232178,7.5767822-16.9232178,16.9231567v116.447876c0,9.3463745,7.5765991,16.9231567,16.9232178,16.9231567
				H97.6950684c9.3464355,0,16.9232178-7.5767822,16.9232178-16.9231567V4.1289673
				C114.6182861-5.2174072,107.0415039-12.7941895,97.6950684-12.7941895z M46.8790283,107.9180298H4.8035278l6.4237061-52.152771
				C5.0325928,51.4146729,1.0043335,44.3746948,1.0043335,36.4246826c0-13.2133179,11.119812-23.9242554,24.8363037-23.9246826
				c13.71698,0,24.836731,10.7107544,24.836731,23.9242554c0,7.9498291-4.027771,14.9898682-10.2215576,19.3410034
				L46.8790283,107.9180298z"/>
		</g>
	</g>
</svg>
